X:573
T:Ah! Sure such a pair
R:Jig
O:Ireland
B:O'Neill's 1835
S:O'Neill's 1835
Z:Transcription:Bob Safranek, chords:Mike Long
M:6/8
L:1/8
K:G
"G"G>AG B>cB|d>ed g<ba|"G"gdB "C"cde|"G"dgB "D"A2G|\
"G"G>AG B>cB|\
dba g2d|"G"gdB "C"cde|"G"dBG "D"A2G:|
|:"G"B2c d2g|"G"baf "C"gdc|"G"B2b bag|\
"D"f2g adc|\
"G"BAB "C"cBc|"G"dba g2d|"G"gdB "C"cde|"G"dBG "D"A2G:|
